!!!!SEGMENT: pl-wtm--r-1343_stefani-jozef--marcia.krn
!!!cenid: 18xx:2404
!!!COM: Stefani, Józef
!!!COM-rismid: pe30024097
!!!CDT: 1800/04/16-1876/03/19
!!!CNT: Polish
!!!OTL: Marcia
!!!PDT:
!!!AGN: Secular; March
!!!SMS-siglum: PL-Wtm
!!!SMS-shelfmark: R 1343
!!!SMS-shelfwork: W
!!!SMS-variant:
!!!SMS-altvar:
!!!NIFC-rismid: 1001119029
!!!URL-scan: http://repozytorium.nifc.pl/skany/pl-wtm-nut--r1343
!!!ONB-nifc:
!!!OMD: Marcia
**kern	**kern	**dynam
*part2	*part1	*part1
*staff2	*staff1	*
*I"Piano	*I"Piano	*
*>[A,B,A,B,C,B,D,E,D]	*>[A,B,A,B,C,B,D,E,D]	*>[A,B,A,B,C,B,D,E,D]
*>A	*>A	*>A
*clefF4	*clefG2	*
*k[f#c#g#]	*k[f#c#g#]	*
*M2/4	*M2/4	*
*all\right	*all\right0	*
!	!	!LO:DY:rj
16ELL 16AA/	16eLL 16c#/	f
16EJJ 16AA/	16eJJ 16c#/	.
=1	=1	=1
4E 4AA/	4e 4c#/	.
8AL 8C#\	8aL 8e/	.
8BJ 8E\	8bJ 8g# 8e/	.
=2	=2	=2
*	*^	*
8.c#L 8.A\	8.cc#L 8.a/	4e\	.
16BK 16E\	16bK 16g#/	.	.
8A 8C#\	8a/	8e\L	.
8BJ 8E\	8bJ 8g#/	8e\J	.
=3	=3	=3	=3
8c#L 8A\	8cc#L 8a/	4e\	.
8B 8E\	8b 8g#/	.	.
8c# 8A\	8cc# 8a/	8e\L	.
8dJ 8B\	8ddJ 8b/	8e\J	.
*	*v	*v	*
=4	=4	=4
8B 8E\	8bL 8g# 8e/	.
8r	16eeL 16e/	.
.	16eeJJ 16e/	.
4r	8eeL 8e/	.
.	8eeJ 8e/	.
=5	=5	=5
4E 4EE/	4e/	.
8BL 8E\	8bL 8g# 8e/	.
8c#J 8A\	8cc#J 8a 8e/	.
=6	=6	=6
*	*^	*
8.dL 8.B\	8.ddL 8.b/	4e\	.
16c#K 16A\	16cc#K 16a/	.	.
8B 8E\	8b/	8e\L	.
8c#J 8A\	8cc#J 8a/	8e\J	.
!!LO:LB:g=original
=7	=7	=7	=7
8dL 8B\	8ddL 8b/	4e\	.
8c# 8A\	8cc# 8a/	.	.
8d 8B\	8dd 8b/	8e\L	.
8BJ 8E\	8eeJ 8g#/	8e\J	.
*	*v	*v	*
=8	=8	=8
8c# 8A\	8cc# 8a 8e/	.
8r	16aaLL 16a\	.
.	16aaJJ 16a\	.
4r	8aaL 8a\	.
.	8aaJ 8a\	.
=9	=9	=9
4c# 4F#\	4cc# 4a 4f#/	.
8c#L 8F#\	8ff#L 8cc# 8a\	.
8c#J 8E#X 8C#\	8gg#J 8cc# 8b\	.
=10	=10	=10
8.c#L 8.F#\	8.aaL 8.cc# 8.a\	.
16e#XJk 16c# 16G#\	16gg#K 16cc# 16b\	.
8f#L 8c# 8A\	8ff# 8cc#\	.
8c#J 8A#X\	8eenJ 8cc# 8f#\	.
*clefG2	*	*
=11	=11	=11
*^	*^	*
8g#/L	4B\	8ee/L	4b\	.
16f#/L	.	16dd#X/L	.	.
16g#/JJ	.	16ee/JJ	.	.
8a/L	8B\L	8ff#/L	8b\L	.
8f#/J	8B\J	8dd#/J	8b\J	.
*v	*v	*	*	*
*	*v	*v	*
=12	=12	=12
8g# 8e/	8ee\L	.
*clefF4	*	*
16eLL 16E\	16eeeL 16ee\	.
16eJJ 16E\	16eeeJJ 16ee\	.
!LO:TX:t=[segno]:problem:znak segno na kresce taktowej	!LO:TX:t=[segno]:problem:znak segno na kresce taktowej	!
8e 8E\	8eee 8ee\	.
=||	=||	=||
*>B	*>B	*>B
!	!	!LO:DY:rj
8r	16cc#'\LL	p
.	16cc#'\JJ	.
=13	=13	=13
16EE/|	(8cc#\L	.
16r	.	.
(8E\L	8b\	.
8d 8B\	8dd\)	.
8E\J)	16r	.
.	16g#\Jk|	.
=14	=14	=14
(8c#L 8A\	4.a/	.
8E\	.	.
8c# 8A\	.	.
8E\J)	16eeLL 16cc#'\	.
.	16eeJJ 16cc#'\	.
!!LO:LB:g=original
=15	=15	=15
16EE/|	(8eeL 8cc#\	.
16r	.	.
(8E\L	8dd 8b\	.
8d 8B\	8ff# 8dd\)	.
8E\J)	16r	.
.	16bJk 16g#\|	.
=16	=16	=16
(8c#L 8A\	4.cc# 4.a\|	.
8E\	.	.
8c#J 8A\)	.	.
8r	16aaLL 16a'\	.
.	16aaJJ 16a'\	.
=17	=17	=17
8BL 8G# 8E\	(8aa\L	<
8B 8G# 8E\	8gg#\	.
8B 8G# 8E 8D\	8bb\)	.
8BJ 8G# 8E 8D\	16r	.
.	16ee\Jk|	[
=18	=18	=18
.	(8qee/	f
8AL 8E 8C#\	8eee\L)	.
8A 8E 8C#\	(16ddd\L	.
.	16ccc#\JJ	.
8A 8F# 8D\	16bb\LL	.
.	16aa\	.
8BJ 8A 8F# 8D\	16gg#\	.
.	16ff#\JJ)	.
=19	=19	=19
8c#L 8A 8E\	8ee\L	.
8c# 8A 8E\	16cc#L 16a\	.
.	16cc#JJ 16a\	.
8B 8E\	8bL 8a\	.
8dJ 8B 8E\	8eeJ 8g#\	.
=20	=20	=20
8c#L 8A\	8a\L	.
8A 8AA\	8aa 8cc# 8a\	.
!LO:TX:b:i:t=fine	!LO:TX:a:t=P:problem:fermata na kresce taktowej	!
8AJ 8AA\	8aaJ 8cc# 8a;\	.
=:|!	=:|!	=:|!
*>C	*>C	*>C
!	!	!LO:DY:rj
8r	16eeLL 16e'\	p
.	16eeJJ 16e'\	.
=21	=21	=21
2r	8eeL 8e'\	.
.	16eeL 16e'\	.
.	16eeJJ 16e'\	.
.	8eeL 8e'\	.
.	16eeL 16e'\	.
.	16eeJJ 16e'\	.
!!LO:LB:g=original
=22	=22	=22
!	!	!LO:DY:rj
8dL 8B\	8ddL 8b'>^/	f
8c# 8A\	8cc# 8a'>^/	.
8BJ 8E\	8bJ 8g#'>^/	.
!	!	!LO:DY:rj
8r	16eeLL 16e'>/	p
.	16eeJJ 16e'>/	.
=23	=23	=23
2r	8eeL 8e'>/	.
.	16eeL 16e'>/	.
.	16eeJJ 16e'>/	.
.	8eeL 8e'>/	.
.	16eeL 16e'>/	.
.	16eeJJ 16e'>/	.
=24	=24	=24
!	!	!LO:DY:rj
8eL 8c#\	8eeL 8cc#'^<\	f
8d 8B\	8dd 8b'^<\	.
8c#J 8A\	8cc#J 8a'^<\	.
!	!	!LO:DY:rj
8r	16aaLL 16a\	p
.	16aaJJ 16a\	.
=25	=25	=25
2r	8aaL 8a\	<
.	16aaL 16a\	.
.	16aaJJ 16a\	.
.	8aaL 8a\	.
.	16aaL 16a\	.
.	16aaJJ 16a\	[[
=26	=26	=26
8c#L 8A 8F#\	4ccc# 4cc#\	f
8c# 8A 8F#\	.	.
8B 8A 8F# 8D#X\	16bbLL 16b\	.
.	16aa 16a\	.
8BJ 8A 8F# 8D#\	16gg# 16g#\	.
.	16ff#JJ 16f#\	.
=27	=27	=27
8BL 8G# 8E\	8eeL 8e\	.
8B 8G# 8E\	16dd#XL 16d#X\	.
.	16eeJJ 16e\	.
8A 8F# 8D#X 8BB\	8ff#L 8f#\	.
8AJ 8F# 8D# 8BB\	8bbJ 8b\	.
=28	=28	=28
8G# 8E\	8ee\L	.
16ELL 16EE\	16eeeL 16ee\	.
16EJJ 16EE\	16eeeJJ 16ee\	.
!	!LO:TX:b:i:t=d'al\nSegno	!
!LO:TX:t=[segno]:problem:znak segno na kresce taktowej	!LO:TX:t=[segno]:problem:znak segno na kresce taktowej	!
8E 8EE\	8eee 8ee\	.
!!LO:PB:g=original
=||	=||	=||
!!!OMD: Trio
*>D	*>D	*>D
*k[gnf#c#]	*k[gnf#c#]	*
*M2/4	*M2/4	*
!LO:TX:t=P:problem:kolejność znaków Gn F# C#	!LO:TX:t=P:problem:kolejność znaków ggn ff# cc#	!LO:DY:rj
8r	8A/	p
=29	=29	=29
8DL 8DD/	4.A/	.
8F# 8D/	.	.
8F#J 8D/	.	.
8r	(16f#/LL	.
.	16d/JJ)	.
=30	=30	=30
8DL 8DD/	4.A/	.
8F# 8D/	.	.
8F#J 8D/	.	.
8r	(16d/LL	.
.	16f#/JJ)	.
=31	=31	=31
8DL 8DD\	4a/	.
8A 8F# 8D\	.	.
8B 8A 8F# 8D#X\	4b^/	.
8BJ 8A 8F# 8D#\	.	.
=32	=32	=32
*tremolo	*	*
8BL 8G 8E\	(>[4b/	.
8B 8G 8E\	.	.
8BJ 8G 8E\	16b/LL]	.
.	16a/	.
8r	16g/	.
.	16f#/JJ)	.
=33	=33	=33
.	(8qe/	.
8dL 8B 8G#X 8E\	([4ee\)	.
8d 8B 8G# 8E\	.	.
8dJ 8B 8G# 8E\	16ee\LL]	.
.	16dd\	.
8r	16cc#\	.
.	16b\JJ)	.
=34	=34	=34
8gnL 8e 8c# 8A\	([4a\	.
8g 8e 8c# 8A\	.	.
8gJ 8e 8c# 8A\	16a\LL]	.
.	16cc#\	.
8r	16ee\	.
.	16gg\JJ)	.
*Xtremolo	*	*
=35	=35	=35
8gL 8e 8c# 8A\	([4ccc#\	.
8g 8e 8c# 8A\	.	.
8g 8e 8c# 8A\	16ccc#\LL]	.
.	16bb\	.
8gJ 8e 8c# 8A\	16gg\	.
.	16ee\JJ)	.
!!LO:LB:g=original
=36	=36	=36
*tremolo	*	*
8f#L 8d\	4.dd\	.
8f# 8d\	.	.
8f#J 8d\	.	.
*Xtremolo	*	*
8r	8aa 8a\	f
=37	=37	=37
8DL 8DD/	4.aa 4.a\	.
8A 8F# 8D/	.	.
8AJ 8F# 8D/	.	.
8r	16ff#\LL	.
.	16dd\JJ	.
=38	=38	=38
*rep	*	*
8DL 8DD/	4.a\	.
8A 8F# 8D/	.	.
8AJ 8F# 8D/	.	.
8r	16dd\LL	.
.	16ff#\JJ	.
*Xrep	*	*
=39	=39	=39
8DL 8DD/	4aa\	.
8AJ 8F# 8D/	.	.
8BL 8A 8F# 8D#X\	4bb^<\	.
8BJ 8A 8F# 8D#\	.	.
=40	=40	=40
*tremolo	*	*
8BL 8G 8E\	[4bb\	.
8B 8G 8E\	.	.
8BJ 8G 8E\	16bb\LL]	.
.	16aa\	.
8r	16gg\	.
.	16ff#\JJ	.
=41	=41	=41
.	8qee/	.
8dL 8B 8G#X 8E\	[4eee\	.
8d 8B 8G# 8E\	.	.
*	*8va	*
8dJ 8B 8G# 8E\	16eee/LL]	.
.	16ddd/	.
8r	16ccc#/	.
.	16bb/JJ	.
*clefG2	*	*
=42	=42	=42
8gnL 8e 8c# 8A/	[>4aa/	.
8g 8e 8c# 8A/	.	.
8gJ 8e 8c# 8A/	16aa/LL]	.
.	16ccc#/	.
8r	16eee/	.
.	16ggg/JJ	.
=43	=43	=43
8gL 8e 8c# 8A/	[4cccc#\	.
8g 8e 8c# 8A/	.	.
8g 8e 8c# 8A/	16cccc#\LL]	.
.	16bbb\	.
8gJ 8e 8c# 8A/	16ggg\	.
.	16eee\JJ	.
*Xtremolo	*X8va	*
!!LO:LB:g=original
=	=	=
*clefF4	*	*
!	!LO:TX:a:t=loco	!
16f#LL 16d\	8ddd\L	.
16d\	.	.
16A\	8ddd 8ff# 8dd\	.
16F#\JJ	.	.
!LO:TX:b:i:t=fine	!LO:TX:a:t=P:problem:fermata na kresce taktowej	!
8D\	8dddJ 8ff# 8dd;\	.
=44||	=44||	=44||
*>E	*>E	*>E
8r	(8ff#\	mf
*clefG2	*	*
=45	=45	=45
*tremolo	*	*
8gL 8e 8c# 8A/	8ee\L)	.
8g 8e 8c# 8A/	8b'\	.
8g 8e 8c# 8A/	8cc#'\	.
8gJ 8e 8c# 8A/	8a'\J	.
*Xtremolo	*	*
=46	=46	=46
.	8qee/	.
8f#L 8d/	(16dd\LL	.
.	16cc#\	.
8f# 8d/	16dd\	.
.	16ee\JJ)	.
8f#J 8d/	8dd\L	.
8r	(8ff#'\J	.
=47	=47	=47
*tremolo	*	*
8gL 8e 8c# 8A/	8ee\L)	.
8g 8e 8c# 8A/	8b'\	.
8g 8e 8c# 8A/	8cc#'\	.
8gJ 8e 8c# 8A/	8a'\J	.
*Xtremolo	*	*
=48	=48	=48
.	8qee/	.
8f#L 8d/	(16dd\LL	.
.	16cc#\	.
8f# 8d/	16dd\	.
.	16ee\JJ	.
8f#J 8d/	8dd\L)	.
8r	(16dd\L	f
.	16ee\JJ)	.
*clefF4	*	*
=49	=49	=49
*tremolo	*	*
*2\right	*	*
8f#L 8c# 8A#X\	8ff#\L	.
8f# 8c# 8A#\	16ff#'\L	.
.	16ff#'\JJ	.
8f# 8c# 8A#\	8ff#'\L	.
8f#J 8c# 8A#\	8ee'\J	.
*Xtremolo	*	*
=50	=50	=50
8f#L 8d 8B\	(16dd\LL	.
.	16ee\	.
8f# 8d 8B\	16dd\	.
.	16cc#\JJ	.
8e 8B 8G#X\	8b\L)	.
8eJ 8B 8G#\	(16ee\L	.
.	16dd\JJ)	.
!!LO:LB:g=original
=51	=51	=51
8eL 8c# 8A\	8cc#\L|	.
8e 8c# 8A\	(16ff#\L	.
.	16ee\JJ)	.
!LO:SIC:v:n=3:s=G#	!	!
8d 8B 8G 8E\	8b\L|	.
!LO:SIC:v:n=3:s=G#	!	!
8dJ 8B 8G 8E\	(16dd\L	.
.	16cc#\JJ)	.
=52	=52	=52
8c#L 8A\	8a\L	.
8A 8AA\	8aa 8cc# 8a\	.
!	!LO:TX:b:i:t=d'al Segno\nal Fine [fermata]	!
!LO:TX:t=[segno]:problem:znak segno na kresce taktowej	!LO:TX:t=[segno]:problem:znak segno na kresce taktowej	!
8AJ 8AA\	8aaJ 8cc# 8a\	.
==	==	==
*-	*-	*-
!!!system-decoration: {(s1,s2)}
!!!RDF**kern: > = above
!!!RDF**kern: < = below
!!!RDF**kern: | = vertical stroke
!!!ENC: Marta Lawrence
!!!END: 2021-06-20
!!!ENC: Marcin Jachim
!!!END: 2021-06-11
